; generated by PrusaSlicer 2.8.1+win64 on 2024-11-18 at 22:21:10 UTC


;
;
; 

; external perimeters extrusion width = 0.45mm
; perimeters extrusion width = 0.45mm
; infill extrusion width = 0.45mm
; solid infill extrusion width = 0.45mm
; top infill extrusion width = 0.40mm
; support material extrusion width = 0.35mm
; first layer extrusion width = 0.42mm

M73 P0 R298
M73 Q0 S300
M201 X1000 Y1000 Z200 E5000 ; sets maximum accelerations, mm/sec^2
M203 X200 Y200 Z12 E120 ; sets maximum feedrates, mm / sec
M204 S1250 T1250 ; sets acceleration (S) and retract acceleration (R), mm/sec^2
M205 X8.00 Y8.00 Z0.40 E4.50 ; sets the jerk limits, mm/sec
M205 S0 T0 ; sets the minimum extruding and travel feed rate, mm/sec

; printing object 198MainChassis.stl id:0 copy 0
; stop printing object 198MainChassis.stl id:0 copy 0

;TYPE:Custom
M862.3 P "MK3S" ; printer model check
M862.1 P0.4 ; nozzle diameter check
M115 U3.14.0 ; tell printer latest fw version
G90 ; use absolute coordinates
M83 ; extruder relative mode
M104 S215 ; set extruder temp
M140 S60 ; set bed temp
M190 S60 ; wait for bed temp
M109 S215 ; wait for extruder temp
G28 W ; home all without mesh bed level
G80 X76.296 Y46.9214 W89.4573 H103.364 ; mesh bed levelling

G1 Z0.2 F720
G1 Y-3 F1000 ; go outside print area
G92 E0
G1 X60 E9 F1000 ; intro line
G1 X100 E12.5 F1000 ; intro line

G92 E0
M221 S95

; Don't change E values below. Excessive value can damage the printer.
M907 E430 ; set extruder motor current
G21 ; set units to millimeters
G90 ; use absolute coordinates
M83 ; use relative distances for extrusion

M900 K0.05 ; Filament gcode LA 1.5
M900 K30 ; Filament gcode LA 1.0




M107
;LAYER_CHANGE
;Z:0.2
;HEIGHT:0.2
G1 E-.8 F2100
G1 Z.6 F720
G1 X76.875 Y48.05 F10800
G1 Z.2 F720
G1 E.8 F2100
M204 S800
;TYPE:Skirt/Brim
;WIDTH:0.42
G1 F1200
G1 X77.908 Y47.248 E.041
G1 X78.673 Y47.11 E.02437
G1 X163.376 Y47.11 E2.6558
G1 X164.624 Y47.501 E.04101
G1 X165.427 Y48.534 E.04102
G1 X165.565 Y49.298 E.02434
G1 X165.565 Y147.908 E3.09185
G1 X165.174 Y149.157 E.04104
M73 P0 R297
G1 X164.141 Y149.959 E.041
G1 X163.376 Y150.097 E.02437
G1 X78.673 Y150.097 E2.6558
G1 X77.425 Y149.706 E.04101
G1 X76.623 Y148.673 E.041
G1 X76.485 Y147.908 E.02437
G1 X76.485 Y49.298 E3.09185
G1 X76.857 Y48.108 E.03909
M204 S1000
;WIPE_START
G1 F8640
G1 X76.875 Y48.05 E-.01402
G1 X77.908 Y47.248 E-.30197
G1 X78.673 Y47.11 E-.17949
G1 X79.992 Y47.11 E-.30452
;WIPE_END
G1 Z.6 F720
; printing object 198MainChassis.stl id:0 copy 0
G1 X163.376 Y147.908 F10800
G1 Z.2 F720
G1 E.8 F2100
M204 S800
;TYPE:Support material
G1 F1200
G1 X78.673 Y147.908 E2.6558
G1 X78.673 Y49.298 E3.09185
G1 X163.376 Y49.298 E2.6558
G1 X163.376 Y147.852 E3.09009
M204 S1000
;WIPE_START
G1 F8640
G1 X163.376 Y144.387 E-.8
;WIPE_END
G1 Z.6 F720
G1 X83.952 Y54.121 F10800
G1 Z.2 F720
G1 E.8 F2100
M204 S800
G1 F1200
G1 X158.098 Y54.121 E2.3248
G1 X158.71 Y54.512 E.02277
G1 X159.007 Y55.032 E.01878
G1 X159.007 Y142.151 E2.73156
G1 X158.787 Y142.731 E.01945
M73 Q0 S299
G1 X158.652 Y142.866 E.00599
G1 X158.072 Y143.086 E.01945
G1 X83.952 Y143.086 E2.32398
G1 X83.339 Y142.695 E.0228
G1 X83.042 Y142.174 E.0188
G1 X83.042 Y55.032 E2.73228
G1 X83.339 Y54.512 E.01878
G1 X83.898 Y54.138 E.02109
M204 S1000
;WIPE_START
G1 F8640
G1 X83.339 Y54.512 E-.1553
G1 X83.042 Y55.032 E-.13827
G1 X83.042 Y57.225 E-.50643
;WIPE_END
G1 Z.6 F720
G1 X162.922 Y147.739 F10800
G1 Z.2 F720
G1 E.8 F2100
M204 S800
G1 F1200
G1 X162.922 Y49.638 E3.07589
G1 X162.503 Y49.638 E.01314
G1 X162.503 Y147.569 E3.07056
G1 X162.084 Y147.569 E.01314
M73 P0 R296
G1 X162.084 Y49.638 E3.07056
G1 X161.665 Y49.638 E.01314
G1 X161.665 Y147.569 E3.07056
G1 X161.246 Y147.569 E.01314
G1 X161.246 Y49.638 E3.07056
G1 X160.827 Y49.638 E.01314
G1 X160.827 Y147.569 E3.07056
G1 X160.408 Y147.569 E.01314
G1 X160.409 Y49.638 E3.07056
G1 X159.99 Y49.638 E.01314
G1 X159.99 Y147.569 E3.07056
G1 X159.571 Y147.569 E.01314
G1 X159.571 Y49.638 E3.07056
G1 X159.152 Y49.638 E.01314
G1 X159.152 Y54.562 E.15439
G1 X158.733 Y54.094 E.0197
G1 X158.733 Y49.638 E.13971
G1 X158.314 Y49.638 E.01314
G1 X158.314 Y53.833 E.13153
G1 X157.895 Y53.781 E.01324
G1 X157.895 Y49.638 E.1299
G1 X157.476 Y49.638 E.01314
G1 X157.476 Y53.781 E.1299
G1 X157.057 Y53.781 E.01314
G1 X157.057 Y49.638 E.1299
G1 X156.638 Y49.638 E.01314
G1 X156.638 Y53.781 E.1299
G1 X156.219 Y53.781 E.01314
G1 X156.219 Y49.638 E.1299
G1 X155.8 Y49.638 E.01314
G1 X155.8 Y53.781 E.1299
G1 X155.381 Y53.781 E.01314
G1 X155.381 Y49.638 E.1299
G1 X154.962 Y49.638 E.01314
G1 X154.962 Y53.781 E.1299
M73 Q0 S298
G1 X154.543 Y53.781 E.01314
G1 X154.543 Y49.638 E.1299
G1 X154.124 Y49.638 E.01314
G1 X154.124 Y53.781 E.1299
G1 X153.705 Y53.781 E.01314
G1 X153.705 Y49.638 E.1299
G1 X153.286 Y49.638 E.01314
G1 X153.286 Y53.781 E.1299
G1 X152.867 Y53.781 E.01314
G1 X152.867 Y49.638 E.1299
G1 X152.448 Y49.638 E.01314
G1 X152.448 Y53.781 E.1299
G1 X152.029 Y53.781 E.01314
G1 X152.029 Y49.638 E.1299
G1 X151.61 Y49.638 E.01314
G1 X151.61 Y53.781 E.1299
G1 X151.191 Y53.781 E.01314
G1 X151.191 Y49.638 E.1299
G1 X150.772 Y49.638 E.01314
G1 X150.772 Y53.781 E.1299
G1 X150.353 Y53.781 E.01314
G1 X150.353 Y49.638 E.1299
G1 X149.934 Y49.638 E.01314
G1 X149.934 Y53.781 E.1299
G1 X149.515 Y53.781 E.01314
G1 X149.515 Y49.638 E.1299
G1 X149.096 Y49.638 E.01314
G1 X149.096 Y53.781 E.1299
G1 X148.677 Y53.781 E.01314
G1 X148.677 Y49.638 E.1299
G1 X148.258 Y49.638 E.01314
G1 X148.258 Y53.781 E.1299
G1 X147.839 Y53.781 E.01314
G1 X147.839 Y49.638 E.1299
G1 X147.42 Y49.638 E.01314
G1 X147.42 Y53.781 E.1299
G1 X147.001 Y53.781 E.01314
G1 X147.001 Y49.638 E.1299
G1 X146.582 Y49.638 E.01314
G1 X146.582 Y53.781 E.1299
G1 X146.163 Y53.781 E.01314
G1 X146.163 Y49.638 E.1299
G1 X145.744 Y49.638 E.01314
G1 X145.744 Y53.781 E.1299
G1 X145.325 Y53.781 E.01314
G1 X145.325 Y49.638 E.1299
G1 X144.906 Y49.638 E.01314
G1 X144.906 Y53.781 E.1299
G1 X144.487 Y53.781 E.01314
G1 X144.487 Y49.638 E.1299
G1 X144.068 Y49.638 E.01314
G1 X144.068 Y53.781 E.1299
G1 X143.649 Y53.781 E.01314
G1 X143.649 Y49.638 E.1299
G1 X143.23 Y49.638 E.01314
G1 X143.23 Y53.781 E.1299
G1 X142.811 Y53.781 E.01314
G1 X142.811 Y49.638 E.1299
G1 X142.392 Y49.638 E.01314
G1 X142.392 Y53.781 E.1299
G1 X141.974 Y53.781 E.01311
G1 X141.974 Y49.638 E.1299
G1 X141.555 Y49.638 E.01314
G1 X141.555 Y53.781 E.1299
G1 X141.136 Y53.781 E.01314
G1 X141.136 Y49.638 E.1299
G1 X140.717 Y49.638 E.01314
G1 X140.717 Y53.781 E.1299
G1 X140.298 Y53.781 E.01314
G1 X140.298 Y49.638 E.1299
G1 X139.879 Y49.638 E.01314
G1 X139.879 Y53.781 E.1299
G1 X139.46 Y53.781 E.01314
G1 X139.46 Y49.638 E.1299
G1 X139.041 Y49.638 E.01314
G1 X139.041 Y53.781 E.1299
G1 X138.622 Y53.781 E.01314
G1 X138.622 Y49.638 E.1299
G1 X138.203 Y49.638 E.01314
G1 X138.203 Y53.781 E.1299
G1 X137.784 Y53.781 E.01314
G1 X137.784 Y49.638 E.1299
G1 X137.365 Y49.638 E.01314
G1 X137.365 Y53.781 E.1299
G1 X136.946 Y53.781 E.01314
G1 X136.946 Y49.638 E.1299
G1 X136.527 Y49.638 E.01314
G1 X136.527 Y53.781 E.1299
G1 X136.108 Y53.781 E.01314
G1 X136.108 Y49.638 E.1299
G1 X135.689 Y49.638 E.01314
G1 X135.689 Y53.781 E.1299
G1 X135.27 Y53.781 E.01314
G1 X135.27 Y49.638 E.1299
G1 X134.851 Y49.638 E.01314
G1 X134.851 Y53.781 E.1299
G1 X134.432 Y53.781 E.01314
G1 X134.432 Y49.638 E.1299
G1 X134.013 Y49.638 E.01314
G1 X134.013 Y53.781 E.1299
G1 X133.594 Y53.781 E.01314
G1 X133.594 Y49.638 E.1299
G1 X133.175 Y49.638 E.01314
G1 X133.175 Y53.781 E.1299
G1 X132.756 Y53.781 E.01314
G1 X132.756 Y49.638 E.1299
G1 X132.337 Y49.638 E.01314
G1 X132.337 Y53.781 E.1299
G1 X131.918 Y53.781 E.01314
G1 X131.918 Y49.638 E.1299
G1 X131.499 Y49.638 E.01314
G1 X131.499 Y53.781 E.1299
G1 X131.08 Y53.781 E.01314
G1 X131.08 Y49.638 E.1299
G1 X130.661 Y49.638 E.01314
G1 X130.661 Y53.781 E.1299
G1 X130.242 Y53.781 E.01314
G1 X130.242 Y49.638 E.1299
G1 X129.823 Y49.638 E.01314
G1 X129.823 Y53.781 E.1299
G1 X129.404 Y53.781 E.01314
G1 X129.404 Y49.638 E.1299
G1 X128.985 Y49.638 E.01314
G1 X128.985 Y53.781 E.1299
G1 X128.566 Y53.781 E.01314
G1 X128.566 Y49.638 E.1299
G1 X128.147 Y49.638 E.01314
G1 X128.147 Y53.781 E.1299
G1 X127.728 Y53.781 E.01314
G1 X127.728 Y49.638 E.1299
G1 X127.309 Y49.638 E.01314
G1 X127.309 Y53.781 E.1299
G1 X126.89 Y53.781 E.01314
G1 X126.89 Y49.638 E.1299
G1 X126.471 Y49.638 E.01314
G1 X126.471 Y53.781 E.1299
G1 X126.052 Y53.781 E.01314
G1 X126.052 Y49.638 E.1299
G1 X125.633 Y49.638 E.01314
G1 X125.633 Y53.781 E.1299
G1 X125.214 Y53.781 E.01314
G1 X125.214 Y49.638 E.1299
G1 X124.795 Y49.638 E.01314
G1 X124.795 Y53.781 E.1299
G1 X124.376 Y53.781 E.01314
G1 X124.376 Y49.638 E.1299
G1 X123.958 Y49.638 E.01311
G1 X123.958 Y53.781 E.1299
G1 X123.539 Y53.781 E.01314
G1 X123.539 Y49.638 E.1299
G1 X123.12 Y49.638 E.01314
G1 X123.12 Y53.781 E.1299
G1 X122.701 Y53.781 E.01314
G1 X122.701 Y49.638 E.1299
G1 X122.282 Y49.638 E.01314
G1 X122.282 Y53.781 E.1299
G1 X121.863 Y53.781 E.01314
G1 X121.863 Y49.638 E.1299
G1 X121.444 Y49.638 E.01314
G1 X121.444 Y53.781 E.1299
G1 X121.025 Y53.781 E.01314
G1 X121.025 Y49.638 E.1299
G1 X120.606 Y49.638 E.01314
G1 X120.606 Y53.781 E.1299
G1 X120.187 Y53.781 E.01314
G1 X120.187 Y49.638 E.1299
G1 X119.768 Y49.638 E.01314
G1 X119.768 Y53.781 E.1299
G1 X119.349 Y53.781 E.01314
G1 X119.349 Y49.638 E.1299
G1 X118.93 Y49.638 E.01314
G1 X118.93 Y53.781 E.1299
G1 X118.511 Y53.781 E.01314
G1 X118.511 Y49.638 E.1299
G1 X118.092 Y49.638 E.01314
G1 X118.092 Y53.781 E.1299
G1 X117.673 Y53.781 E.01314
G1 X117.673 Y49.638 E.1299
M73 P0 R295
G1 X117.254 Y49.638 E.01314
G1 X117.254 Y53.781 E.1299
G1 X116.835 Y53.781 E.01314
G1 X116.835 Y49.638 E.1299
G1 X116.416 Y49.638 E.01314
G1 X116.416 Y53.781 E.1299
G1 X115.997 Y53.781 E.01314
G1 X115.997 Y49.638 E.1299
G1 X115.578 Y49.638 E.01314
G1 X115.578 Y53.781 E.1299
G1 X115.159 Y53.781 E.01314
G1 X115.159 Y49.638 E.1299
G1 X114.74 Y49.638 E.01314
G1 X114.74 Y53.781 E.1299
G1 X114.321 Y53.781 E.01314
G1 X114.321 Y49.638 E.1299
G1 X113.902 Y49.638 E.01314
G1 X113.902 Y53.781 E.1299
G1 X113.483 Y53.781 E.01314
G1 X113.483 Y49.638 E.1299
G1 X113.064 Y49.638 E.01314
G1 X113.064 Y53.781 E.1299
G1 X112.645 Y53.781 E.01314
G1 X112.645 Y49.638 E.1299
G1 X112.226 Y49.638 E.01314
G1 X112.226 Y53.781 E.1299
G1 X111.807 Y53.781 E.01314
G1 X111.807 Y49.638 E.1299
G1 X111.388 Y49.638 E.01314
G1 X111.388 Y53.781 E.1299
G1 X110.969 Y53.781 E.01314
G1 X110.969 Y49.638 E.1299
G1 X110.55 Y49.638 E.01314
G1 X110.55 Y53.781 E.1299
G1 X110.131 Y53.781 E.01314
G1 X110.131 Y49.638 E.1299
G1 X109.712 Y49.638 E.01314
G1 X109.712 Y53.781 E.1299
G1 X109.293 Y53.781 E.01314
G1 X109.293 Y49.638 E.1299
G1 X108.874 Y49.638 E.01314
G1 X108.874 Y53.781 E.1299
G1 X108.455 Y53.781 E.01314
G1 X108.455 Y49.638 E.1299
G1 X108.036 Y49.638 E.01314
G1 X108.036 Y53.781 E.1299
G1 X107.617 Y53.781 E.01314
G1 X107.617 Y49.638 E.1299
G1 X107.198 Y49.638 E.01314
G1 X107.198 Y53.781 E.1299
G1 X106.779 Y53.781 E.01314
G1 X106.779 Y49.638 E.1299
G1 X106.36 Y49.638 E.01314
G1 X106.36 Y53.781 E.1299
G1 X105.941 Y53.781 E.01314
G1 X105.941 Y49.638 E.1299
G1 X105.523 Y49.638 E.01311
G1 X105.523 Y53.781 E.1299
G1 X105.104 Y53.781 E.01314
G1 X105.104 Y49.638 E.1299
G1 X104.685 Y49.638 E.01314
G1 X104.685 Y53.781 E.1299
G1 X104.266 Y53.781 E.01314
G1 X104.266 Y49.638 E.1299
G1 X103.847 Y49.638 E.01314
G1 X103.847 Y53.781 E.1299
G1 X103.428 Y53.781 E.01314
G1 X103.428 Y49.638 E.1299
G1 X103.009 Y49.638 E.01314
G1 X103.009 Y53.781 E.1299
G1 X102.59 Y53.781 E.01314
G1 X102.59 Y49.638 E.1299
G1 X102.171 Y49.638 E.01314
G1 X102.171 Y53.781 E.1299
G1 X101.752 Y53.781 E.01314
G1 X101.752 Y49.638 E.1299
G1 X101.333 Y49.638 E.01314
G1 X101.333 Y53.781 E.1299
G1 X100.914 Y53.781 E.01314
G1 X100.914 Y49.638 E.1299
G1 X100.495 Y49.638 E.01314
G1 X100.495 Y53.781 E.1299
G1 X100.076 Y53.781 E.01314
G1 X100.076 Y49.638 E.1299
G1 X99.657 Y49.638 E.01314
G1 X99.657 Y53.781 E.1299
G1 X99.238 Y53.781 E.01314
G1 X99.238 Y49.638 E.1299
G1 X98.819 Y49.638 E.01314
G1 X98.819 Y53.781 E.1299
G1 X98.4 Y53.781 E.01314
G1 X98.4 Y49.638 E.1299
G1 X97.981 Y49.638 E.01314
G1 X97.981 Y53.781 E.1299
G1 X97.562 Y53.781 E.01314
G1 X97.562 Y49.638 E.1299
G1 X97.143 Y49.638 E.01314
G1 X97.143 Y53.781 E.1299
G1 X96.724 Y53.781 E.01314
G1 X96.724 Y49.638 E.1299
G1 X96.305 Y49.638 E.01314
G1 X96.305 Y53.781 E.1299
G1 X95.886 Y53.781 E.01314
G1 X95.886 Y49.638 E.1299
G1 X95.467 Y49.638 E.01314
G1 X95.467 Y53.781 E.1299
G1 X95.048 Y53.781 E.01314
G1 X95.048 Y49.638 E.1299
G1 X94.629 Y49.638 E.01314
G1 X94.629 Y53.781 E.1299
G1 X94.21 Y53.781 E.01314
G1 X94.21 Y49.638 E.1299
G1 X93.791 Y49.638 E.01314
G1 X93.791 Y53.781 E.1299
G1 X93.372 Y53.781 E.01314
G1 X93.372 Y49.638 E.1299
G1 X92.953 Y49.638 E.01314
G1 X92.953 Y53.781 E.1299
G1 X92.534 Y53.781 E.01314
G1 X92.534 Y49.638 E.1299
G1 X92.115 Y49.638 E.01314
G1 X92.115 Y53.781 E.1299
G1 X91.696 Y53.781 E.01314
G1 X91.696 Y49.638 E.1299
G1 X91.277 Y49.638 E.01314
G1 X91.277 Y53.781 E.1299
G1 X90.858 Y53.781 E.01314
G1 X90.858 Y49.638 E.1299
G1 X90.439 Y49.638 E.01314
G1 X90.439 Y53.781 E.1299
G1 X90.02 Y53.781 E.01314
G1 X90.02 Y49.638 E.1299
G1 X89.601 Y49.638 E.01314
G1 X89.601 Y53.781 E.1299
G1 X89.182 Y53.781 E.01314
G1 X89.182 Y49.638 E.1299
G1 X88.763 Y49.638 E.01314
G1 X88.763 Y53.781 E.1299
G1 X88.344 Y53.781 E.01314
G1 X88.344 Y49.638 E.1299
G1 X87.925 Y49.638 E.01314
G1 X87.925 Y53.781 E.1299
G1 X87.507 Y53.781 E.01311
G1 X87.507 Y49.638 E.1299
G1 X87.088 Y49.638 E.01314
G1 X87.088 Y53.781 E.1299
G1 X86.669 Y53.781 E.01314
G1 X86.669 Y49.638 E.1299
G1 X86.25 Y49.638 E.01314
G1 X86.25 Y53.781 E.1299
G1 X85.831 Y53.781 E.01314
G1 X85.831 Y49.638 E.1299
G1 X85.412 Y49.638 E.01314
G1 X85.412 Y53.781 E.1299
G1 X84.993 Y53.781 E.01314
G1 X84.993 Y49.638 E.1299
G1 X84.574 Y49.638 E.01314
G1 X84.574 Y53.781 E.1299
G1 X84.155 Y53.781 E.01314
G1 X84.155 Y49.638 E.1299
G1 X83.736 Y49.638 E.01314
G1 X83.736 Y53.833 E.13153
G1 X83.317 Y54.094 E.01548
G1 X83.317 Y49.638 E.13971
G1 X82.898 Y49.638 E.01314
G1 X82.898 Y54.562 E.15439
G1 X82.703 Y54.982 E.01452
G1 X82.703 Y142.225 E2.73544
G1 X82.898 Y142.644 E.01449
G1 X82.898 Y147.569 E.15442
G1 X83.317 Y147.569 E.01314
G1 X83.317 Y143.113 E.13971
G1 X83.736 Y143.374 E.01548
G1 X83.736 Y147.569 E.13153
G1 X84.155 Y147.569 E.01314
G1 X84.155 Y143.426 E.1299
G1 X84.574 Y143.426 E.01314
G1 X84.574 Y147.569 E.1299
G1 X84.993 Y147.569 E.01314
G1 X84.993 Y143.426 E.1299
G1 X85.412 Y143.426 E.01314
G1 X85.412 Y147.569 E.1299
G1 X85.831 Y147.569 E.01314
G1 X85.831 Y143.426 E.1299
G1 X86.25 Y143.426 E.01314
G1 X86.25 Y147.569 E.1299
G1 X86.669 Y147.569 E.01314
G1 X86.669 Y143.426 E.1299
G1 X87.088 Y143.426 E.01314
G1 X87.088 Y147.569 E.1299
G1 X87.506 Y147.569 E.01311
G1 X87.506 Y143.426 E.1299
G1 X87.925 Y143.426 E.01314
G1 X87.925 Y147.569 E.1299
G1 X88.344 Y147.569 E.01314
G1 X88.344 Y143.426 E.1299
G1 X88.763 Y143.426 E.01314
G1 X88.763 Y147.569 E.1299
G1 X89.182 Y147.569 E.01314
G1 X89.182 Y143.426 E.1299
G1 X89.601 Y143.426 E.01314
G1 X89.601 Y147.569 E.1299
G1 X90.02 Y147.569 E.01314
G1 X90.02 Y143.426 E.1299
G1 X90.439 Y143.426 E.01314
G1 X90.439 Y147.569 E.1299
G1 X90.858 Y147.569 E.01314
G1 X90.858 Y143.426 E.1299
G1 X91.277 Y143.426 E.01314
G1 X91.277 Y147.569 E.1299
G1 X91.696 Y147.569 E.01314
G1 X91.696 Y143.426 E.1299
G1 X92.115 Y143.426 E.01314
G1 X92.115 Y147.569 E.1299
G1 X92.534 Y147.569 E.01314
G1 X92.534 Y143.426 E.1299
G1 X92.953 Y143.426 E.01314
G1 X92.953 Y147.569 E.1299
G1 X93.372 Y147.569 E.01314
G1 X93.372 Y143.426 E.1299
G1 X93.791 Y143.426 E.01314
G1 X93.791 Y147.569 E.1299
G1 X94.21 Y147.569 E.01314
G1 X94.21 Y143.426 E.1299
G1 X94.629 Y143.426 E.01314
G1 X94.629 Y147.569 E.1299
G1 X95.048 Y147.569 E.01314
G1 X95.048 Y143.426 E.1299
G1 X95.467 Y143.426 E.01314
G1 X95.467 Y147.569 E.1299
G1 X95.886 Y147.569 E.01314
G1 X95.886 Y143.426 E.1299
G1 X96.305 Y143.426 E.01314
G1 X96.305 Y147.569 E.1299
G1 X96.724 Y147.569 E.01314
G1 X96.724 Y143.426 E.1299
G1 X97.143 Y143.426 E.01314
G1 X97.143 Y147.569 E.1299
G1 X97.562 Y147.569 E.01314
G1 X97.562 Y143.426 E.1299
G1 X97.981 Y143.426 E.01314
G1 X97.981 Y147.569 E.1299
